X:18409
T:Waltz fr Norway
R:Waltz
O:Norway
M:3/4
K:Dm
D2|\
G2 BG Bd|dc AB G2|BA FA cB|G2 B2 d2|\
d2 fd fa|ag ef d2|fe ce gf|1 d4 :|2 d3 ||
|:\
K:G
e dc|\
B2 d2 g2|b2 a2 g2|gf e2 d2|g3f e2|\
A2 B2 c2|e3 d cB|dc Bc Ad| G3 :|


